coffe/linkedin.svg

<svg width="48" height="48" viewBox="0 0 48 48" fill="none" xmlns="http://www.w3.org/2000/svg">
<path d="M10.5 5.25C10.5 8.1495 8.1495 10.5 5.25 10.5C2.35051 10.5 0 8.1495 0 5.25C0 2.35051 2.35051 0 5.25 0C8.1495 0 10.5 2.35051 10.5 5.25Z" fill="#A07250"/>
<path d="M0 15H10.734V48H0V15Z" fill="#A07250"/>
<path d="M39.972 15.387C39.858 15.351 39.75 15.312 39.63 15.279C39.486 15.246 39.342 15.219 39.195 15.195C38.625 15.081 38.001 15 37.269 15C31.011 15 27.042 19.551 25.734 21.309V15H15V48H25.734V30C25.734 30 33.846 18.702 37.269 27V48H48V25.731C48 20.745 44.583 16.59 39.972 15.387Z" fill="#A07250"/>
</svg>

<svg xmlns="http://www.w3.org/2000/svg" width="48" height="48" fill="none"><path fill="#A07250" d="M10.5 5.25a5.25 5.25 0 1 1-10.5 0 5.25 5.25 0 0 1 10.5 0ZM0 15h10.73v33H0V15ZM39.97 15.39l-.34-.11a9.62 9.62 0 0 0-2.36-.28c-6.26 0-10.23 4.55-11.54 6.3V15H15v33h10.73V30s8.12-11.3 11.54-3v21H48V25.73a10.7 10.7 0 0 0-8.03-10.34Z"/></svg>
